tn/qr-code-outline.svg

<svg viewBox="0 0 15 15" fill="none" xmlns="http://www.w3.org/2000/svg" height="1em" width="1em">
  <path d="M12 8.5H8.5V12M14 8.5H15M12 14.5H8M11 11.5H14.5V15M3 3.5H4M11 3.5H12M3 11.5H4M1.5 0.5H5.5C6.05228 0.5 6.5 0.947715 6.5 1.5V5.5C6.5 6.05228 6.05228 6.5 5.5 6.5H1.5C0.947715 6.5 0.5 6.05228 0.5 5.5V1.5C0.5 0.947715 0.947715 0.5 1.5 0.5ZM9.5 0.5H13.5C14.0523 0.5 14.5 0.947715 14.5 1.5V5.5C14.5 6.05228 14.0523 6.5 13.5 6.5H9.5C8.94772 6.5 8.5 6.05228 8.5 5.5V1.5C8.5 0.947715 8.94772 0.5 9.5 0.5ZM1.5 8.5H5.5C6.05228 8.5 6.5 8.94772 6.5 9.5V13.5C6.5 14.0523 6.05228 14.5 5.5 14.5H1.5C0.947715 14.5 0.5 14.0523 0.5 13.5V9.5C0.5 8.94772 0.947715 8.5 1.5 8.5Z" stroke="black"/>
</svg>

<svg viewBox="0 0 15 15" fill="none" xmlns="http://www.w3.org/2000/svg" height="1em" width="1em">
  <path d="M12 8.5H8.5V12M14 8.5h1m-3 6H8m3-3h3.5V15M3 3.5h1m7 0h1m-9 8h1M1.5.5h4a1 1 0 0 1 1 1v4a1 1 0 0 1-1 1h-4a1 1 0 0 1-1-1v-4a1 1 0 0 1 1-1Zm8 0h4a1 1 0 0 1 1 1v4a1 1 0 0 1-1 1h-4a1 1 0 0 1-1-1v-4a1 1 0 0 1 1-1Zm-8 8h4a1 1 0 0 1 1 1v4a1 1 0 0 1-1 1h-4a1 1 0 0 1-1-1v-4a1 1 0 0 1 1-1Z" stroke="#000"/>
</svg>
